X: 50
T: Boys of Ballinahinch
T: Strawberry Blossom
R: reel
M: C|
L: 1/8
K: D
a/g/|f2df edBA|(3Bcd ef g2ag|f2df edBA|dBAF EFD :|
e|faaf d3e|faaf g3e|faaf gfef|gfed Bdde|
faaf d2de|faaf g2ga|bgaf gfed|(3Bcd ef g2 ||

